X: 500
T: Wugeng li
%%abc-version 2.0
%%abcx-abcm2ps-target-version 5.9.1 (29 Sep 2008)
%%abc-creator hum2abc beta
%%abcx-conversion-date 2013/10/02 07:52:30
%%abc-edited-by Helmut Schaffrath
%%humdrum-veritas 3126626201
%%humdrum-veritas-data 1219292212
%%continueall 1
%%barnumbers 0
L: 1/8
M: 2/4
K: G
D G G E [I:setbarnb 1]| 
d/ e d/d2 | 
d e e/ d/ B | 
B GA2 | 
d A/ B/ d d | 
A d A/ B/ A/ G/ | 
E D/ E/ A B/ E/ | 
D4 | 
G E/ D/G2 | 
B G/ A/B2 | 
d B/ A/ G E | 
BE3 | 
e g e d | 
B e/ g/ e d | 
B B/ A/ G d | 
B2A/ G/ F/ E/ | 
D4 |]  



